static/img/kroki/d9ce982398cf27565c0bca40413a4221.svg

<?xml version="1.0" encoding="us-ascii" standalone="no"?><svg xmlns="http://www.w3.org/2000/svg" xmlns:xlink="http://www.w3.org/1999/xlink" contentStyleType="text/css" height="252px" preserveAspectRatio="none" style="width:394px;height:252px;" version="1.1" viewBox="0 0 394 252" width="394px" zoomAndPan="magnify"><defs/><g><!--class azure_sql_server--><g id="elem_azure_sql_server"><rect codeLine="23" fill="#3D176E" height="39.7891" id="azure_sql_server" rx="2.5" ry="2.5" style="stroke:#000D19;stroke-width:0.5;" width="181" x="142" y="7"/><ellipse cx="157" cy="26.8945" fill="#ADD1B2" rx="11" ry="11" style="stroke:#181818;stroke-width:1.0;"/><path d="M159.9688,32.5352 Q159.3906,32.832 158.75,32.9727 Q158.1094,33.1289 157.4063,33.1289 Q154.9063,33.1289 153.5781,31.4883 Q152.2656,29.832 152.2656,26.707 Q152.2656,23.582 153.5781,21.9258 Q154.9063,20.2695 157.4063,20.2695 Q158.1094,20.2695 158.75,20.4258 Q159.4063,20.582 159.9688,20.8789 L159.9688,23.5977 Q159.3438,23.0195 158.75,22.7539 Q158.1563,22.4727 157.5313,22.4727 Q156.1875,22.4727 155.5,23.5508 Q154.8125,24.6133 154.8125,26.707 Q154.8125,28.8008 155.5,29.8789 Q156.1875,30.9414 157.5313,30.9414 Q158.1563,30.9414 158.75,30.6758 Q159.3438,30.3945 159.9688,29.8164 L159.9688,32.5352 Z " fill="#000000"/><text fill="#D9B8FF" font-family="Helvetica" font-size="17" lengthAdjust="spacing" textLength="139" x="176" y="32.7798">azure_sql_server</text></g><!--class azure_sql_server_database--><g id="elem_azure_sql_server_database"><rect codeLine="26" fill="#3D176E" height="39.7891" id="azure_sql_server_database" rx="2.5" ry="2.5" style="stroke:#000D19;stroke-width:0.5;" width="265" x="7" y="106.79"/><ellipse cx="22" cy="126.6845" fill="#ADD1B2" rx="11" ry="11" style="stroke:#181818;stroke-width:1.0;"/><path d="M24.9688,132.3252 Q24.3906,132.622 23.75,132.7627 Q23.1094,132.9189 22.4063,132.9189 Q19.9063,132.9189 18.5781,131.2783 Q17.2656,129.622 17.2656,126.497 Q17.2656,123.372 18.5781,121.7158 Q19.9063,120.0595 22.4063,120.0595 Q23.1094,120.0595 23.75,120.2158 Q24.4063,120.372 24.9688,120.6689 L24.9688,123.3877 Q24.3438,122.8095 23.75,122.5439 Q23.1563,122.2627 22.5313,122.2627 Q21.1875,122.2627 20.5,123.3408 Q19.8125,124.4033 19.8125,126.497 Q19.8125,128.5908 20.5,129.6689 Q21.1875,130.7314 22.5313,130.7314 Q23.1563,130.7314 23.75,130.4658 Q24.3438,130.1845 24.9688,129.6064 L24.9688,132.3252 Z " fill="#000000"/><text fill="#D9B8FF" font-family="Helvetica" font-size="17" lengthAdjust="spacing" textLength="223" x="41" y="132.5698">azure_sql_server_database</text></g><!--class azure_sql_server_failover_group--><g id="elem_azure_sql_server_failover_group"><rect codeLine="29" fill="#3D176E" height="39.7891" id="azure_sql_server_failover_group" rx="2.5" ry="2.5" style="stroke:#000D19;stroke-width:0.5;" width="310" x="77.5" y="206.58"/><ellipse cx="92.5" cy="226.4745" fill="#ADD1B2" rx="11" ry="11" style="stroke:#181818;stroke-width:1.0;"/><path d="M95.4688,232.1152 Q94.8906,232.412 94.25,232.5527 Q93.6094,232.7089 92.9063,232.7089 Q90.4063,232.7089 89.0781,231.0683 Q87.7656,229.412 87.7656,226.287 Q87.7656,223.162 89.0781,221.5058 Q90.4063,219.8495 92.9063,219.8495 Q93.6094,219.8495 94.25,220.0058 Q94.9063,220.162 95.4688,220.4589 L95.4688,223.1777 Q94.8438,222.5995 94.25,222.3339 Q93.6563,222.0527 93.0313,222.0527 Q91.6875,222.0527 91,223.1308 Q90.3125,224.1933 90.3125,226.287 Q90.3125,228.3808 91,229.4589 Q91.6875,230.5214 93.0313,230.5214 Q93.6563,230.5214 94.25,230.2558 Q94.8438,229.9745 95.4688,229.3964 L95.4688,232.1152 Z " fill="#000000"/><text fill="#D9B8FF" font-family="Helvetica" font-size="17" lengthAdjust="spacing" textLength="268" x="111.5" y="232.3598">azure_sql_server_failover_group</text></g><!--link azure_sql_server to azure_sql_server_database--><g id="link_azure_sql_server_azure_sql_server_database"><path codeLine="32" d="M214.13,47.22 C197.82,64.36 178.2634,84.9209 161.9734,102.0609 " fill="none" id="azure_sql_server-to-azure_sql_server_database" style="stroke:#1A83AF;stroke-width:2.0;"/><polygon fill="#1A83AF" points="157.84,106.41,166.9396,102.642,161.2845,102.7857,161.1407,97.1307,157.84,106.41" style="stroke:#1A83AF;stroke-width:2.0;"/></g><!--link azure_sql_server to azure_sql_server_failover_group--><g id="link_azure_sql_server_azure_sql_server_failover_group"><path codeLine="33" d="M251.67,47 C265.15,61.88 282.06,83.8 289.5,106.79 C294.94,123.62 294.94,129.76 289.5,146.58 C282.06,169.57 269.1783,187.0433 255.6983,201.9233 " fill="none" id="azure_sql_server-to-azure_sql_server_failover_group" style="stroke:#1A83AF;stroke-width:2.0;"/><polygon fill="#1A83AF" points="251.67,206.37,260.6769,202.3855,255.0269,202.6644,254.748,197.0145,251.67,206.37" style="stroke:#1A83AF;stroke-width:2.0;"/></g><!--link azure_sql_server_database to azure_sql_server_failover_group--><g id="link_azure_sql_server_database_azure_sql_server_failover_group"><path codeLine="34" d="M157.87,147.01 C174.18,164.15 193.7366,184.7109 210.0266,201.8509 " fill="none" id="azure_sql_server_database-to-azure_sql_server_failover_group" style="stroke:#1A83AF;stroke-width:2.0;"/><polygon fill="#1A83AF" points="214.16,206.2,210.8593,196.9207,210.7155,202.5757,205.0604,202.432,214.16,206.2" style="stroke:#1A83AF;stroke-width:2.0;"/></g><!--SRC=[bP3HIiCm58Rl-nI1NGzQYwwz4UfWwCqGvvr8EMrEjj0sgIVPnYQ-kwjLoTfrOtSX_vVpVoShoP5XLTiTgx3Aa8nd2gbg8AXOGgItKrrgOYCXG8IJRZZJobu4vb0XUyHoWrRcq2LULp8l51h3Rfpe0V9YINgjU3lU4YXpY51PXvgMO4nYBSbiRT6HuN4M2T4bkqD78GycTzZ3D76aNyJtVHx4NUHYrTcz_uc5t2CBt4-RQuizpLx53tNMiY4SoTwYV_cWupDmBjMItJftBwqJAQIZ-yKAkDusj83Ik3N68g6skngdlQqmZhYOd8IVXc0lRxwEmNvDc9gFCZL8cuFDf-Tz3MGf1miP63mB2P2bRWvDQzsYlPRnsoX8eZ2PlO_lXtkkVNTSxGtxNpNc6m00]--></g></svg>

<svg xmlns="http://www.w3.org/2000/svg" width="394" height="252" viewBox="0 0 394 252"><rect width="181" height="39.789" x="142" y="7" fill="#3D176E" rx="2.5" ry="2.5" style="stroke:#000d19;stroke-width:.5"/><circle cx="157" cy="26.895" r="11" fill="#ADD1B2" style="stroke:#181818;stroke-width:1"/><path d="M159.969 32.535q-.578.297-1.219.438-.64.156-1.344.156-2.5 0-3.828-1.64-1.312-1.657-1.312-4.782t1.312-4.781q1.328-1.656 3.828-1.656.703 0 1.344.156.656.156 1.219.453v2.719q-.625-.578-1.219-.844-.594-.281-1.219-.281-1.344 0-2.031 1.078-.687 1.062-.687 3.156t.687 3.172q.688 1.062 2.031 1.062.625 0 1.219-.265.594-.281 1.219-.86z"/><text x="176" y="32.78" fill="#D9B8FF" font-family="Helvetica" font-size="17" textLength="139">azure_sql_server</text><rect width="265" height="39.789" x="7" y="106.79" fill="#3D176E" rx="2.5" ry="2.5" style="stroke:#000d19;stroke-width:.5"/><circle cx="22" cy="126.684" r="11" fill="#ADD1B2" style="stroke:#181818;stroke-width:1"/><path d="M24.969 132.325q-.578.297-1.219.438-.64.156-1.344.156-2.5 0-3.828-1.64-1.312-1.657-1.312-4.782t1.312-4.781q1.328-1.656 3.828-1.656.703 0 1.344.156.656.156 1.219.453v2.719q-.625-.579-1.219-.844-.594-.281-1.219-.281-1.343 0-2.031 1.078-.687 1.062-.687 3.156t.687 3.172q.688 1.062 2.031 1.062.625 0 1.219-.265.594-.281 1.219-.86z"/><text x="41" y="132.57" fill="#D9B8FF" font-family="Helvetica" font-size="17" textLength="223">azure_sql_server_database</text><rect width="310" height="39.789" x="77.5" y="206.58" fill="#3D176E" rx="2.5" ry="2.5" style="stroke:#000d19;stroke-width:.5"/><circle cx="92.5" cy="226.475" r="11" fill="#ADD1B2" style="stroke:#181818;stroke-width:1"/><path d="M95.469 232.115q-.578.297-1.219.438-.64.156-1.344.156-2.5 0-3.828-1.64-1.312-1.657-1.312-4.782t1.312-4.781q1.328-1.656 3.828-1.656.703 0 1.344.156.656.156 1.219.453v2.719q-.625-.578-1.219-.844-.594-.281-1.219-.281-1.344 0-2.031 1.078-.687 1.062-.687 3.156t.687 3.172q.688 1.062 2.031 1.062.625 0 1.219-.265.594-.281 1.219-.86z"/><text x="111.5" y="232.36" fill="#D9B8FF" font-family="Helvetica" font-size="17" textLength="268">azure_sql_server_failover_group</text><path fill="none" d="M214.13 47.22c-16.31 17.14-35.867 37.7-52.157 54.84" style="stroke:#1a83af;stroke-width:2"/><path fill="#1A83AF" d="m157.84 106.41 9.1-3.768-5.655.144-.144-5.655z" style="stroke:#1a83af;stroke-width:2"/><path fill="none" d="M251.67 47c13.48 14.88 30.39 36.8 37.83 59.79 5.44 16.83 5.44 22.97 0 39.79-7.44 22.99-20.322 40.463-33.802 55.343" style="stroke:#1a83af;stroke-width:2"/><path fill="#1A83AF" d="m251.67 206.37 9.007-3.984-5.65.278-.279-5.65z" style="stroke:#1a83af;stroke-width:2"/><path fill="none" d="M157.87 147.01c16.31 17.14 35.867 37.7 52.157 54.84" style="stroke:#1a83af;stroke-width:2"/><path fill="#1A83AF" d="m214.16 206.2-3.3-9.28-.145 5.656-5.655-.144z" style="stroke:#1a83af;stroke-width:2"/></svg>
